svgs/sharp-solid/sim-card.svg

<svg xmlns="http://www.w3.org/2000/svg" viewBox="0 0 384 512"><!--! Font Awesome Pro 6.6.0 by @fontawesome - https://fontawesome.com License - https://fontawesome.com/license (Commercial License) Copyright 2024 Fonticons, Inc. --><path d="M0 0L32 0 256 0l13.3 0 9.4 9.4 96 96 9.4 9.4 0 13.3 0 352 0 32-32 0L32 512 0 512l0-32L0 32 0 0zM64 192l0 64 64 0 0-64-64 0zm0 160l80 0 96 0 80 0 0-64-80 0-96 0-80 0 0 64zM320 192l-64 0 0 64 64 0 0-64zm-160 0l0 64 64 0 0-64-64 0zm96 192l0 64 64 0 0-64-64 0zm-32 0l-64 0 0 64 64 0 0-64zm-96 0l-64 0 0 64 64 0 0-64z"/></svg>

<svg xmlns="http://www.w3.org/2000/svg" viewBox="0 0 384 512"><!--! Font Awesome Pro 6.4.2 by @fontawesome - https://fontawesome.com License - https://fontawesome.com/license (Commercial License) Copyright 2023 Fonticons, Inc. --><path d="M0 0H32 256h13.3l9.4 9.4 96 96 9.4 9.4V128 480v32H352 32 0V480 32 0zM64 192v64h64V192H64zm0 160h80 96 80V288H240 144 64v64zM320 192H256v64h64V192zm-160 0v64h64V192H160zm96 192v64h64V384H256zm-32 0H160v64h64V384zm-96 0H64v64h64V384z"/></svg>
